src/assets/whiteboard_icons/redo.svg

<svg height="9" viewBox="0 0 21 9" width="21" xmlns="http://www.w3.org/2000/svg"><path d="m10.5 1c-2.65 0-5.05.99-6.9 2.6l-3.6-3.6v9h9l-3.62-3.62c1.39-1.16 3.16-1.88 5.12-1.88 3.54 0 6.55 2.31 7.6 5.5l2.37-.78c-1.39-4.19-5.32-7.22-9.97-7.22z" fill="#343440" fill-rule="evenodd" transform="matrix(-1 0 0 1 21 0)"/></svg>

<?xml version="1.0" encoding="UTF-8"?>
<svg width="21px" height="9px" viewBox="0 0 21 9" version="1.1" xmlns="http://www.w3.org/2000/svg" xmlns:xlink="http://www.w3.org/1999/xlink">
    <!-- Generator: Sketch 52.6 (67491) - http://www.bohemiancoding.com/sketch -->
    <title>redo_icon</title>
    <desc>Created with Sketch.</desc>
    <g id="Page-1" stroke="none" stroke-width="1" fill="none" fill-rule="evenodd">
        <g id="redo_icon" transform="translate(10.500000, 4.500000) scale(-1, 1) translate(-10.500000, -4.500000) " fill="#343440">
            <path d="M10.5,1 C7.85,1 5.45,1.99 3.6,3.6 L0,0 L0,9 L9,9 L5.38,5.38 C6.77,4.22 8.54,3.5 10.5,3.5 C14.04,3.5 17.05,5.81 18.1,9 L20.47,8.22 C19.08,4.03 15.15,1 10.5,1 Z" id="Path"></path>
        </g>
    </g>
</svg>
